icons/pandora.svg

<svg width="32" height="32" viewBox="0 0 32 32" fill="none" xmlns="http://www.w3.org/2000/svg">
<path d="M3.36627 28.6337C0.910867 26.1783 0 22.1783 0 16C0 9.82167 0.910867 5.82167 3.36627 3.36627C5.82167 0.910867 9.82167 0 16 0C22.1783 0 26.1783 0.910867 28.6337 3.36627C31.0891 5.82167 32 9.82167 32 16C32 22.1783 31.0891 26.1783 28.6337 28.6337C26.1783 31.0891 22.1783 32 16 32C9.82167 32 5.82167 31.0891 3.36627 28.6337Z" fill="white"/>
<path d="M17.5115 6.33331H8.83334V25.6666H14.0217C14.1363 25.6668 14.2498 25.6443 14.3557 25.6005C14.4616 25.5567 14.5579 25.4925 14.6389 25.4114C14.72 25.3304 14.7842 25.2341 14.828 25.1282C14.8718 25.0223 14.8943 24.9088 14.8941 24.7942V21.0816H16.1933C22.5419 21.0816 25.1407 17.5082 25.1407 13.3222C25.1316 8.15251 21.2055 6.33331 17.5115 6.33331Z" fill="url(#paint0_linear_29_377)"/>
<defs>
<linearGradient id="paint0_linear_29_377" x1="5.31894" y1="21.4783" x2="22.3274" y2="7.20651" gradientUnits="userSpaceOnUse">
<stop stop-color="#00A3F1"/>
<stop offset="0.44" stop-color="#0090F8"/>
<stop offset="1" stop-color="#006EFF"/>
</linearGradient>
</defs>
</svg>

<svg xmlns="http://www.w3.org/2000/svg" width="32" height="32" fill="none" viewBox="0 0 32 32">
  <path fill="#fff" d="M3.366 28.634C.911 26.178 0 22.178 0 16S.91 5.822 3.366 3.366C5.822.911 9.822 0 16 0s10.178.91 12.634 3.366C31.089 5.822 32 9.822 32 16s-.91 10.178-3.366 12.634C26.178 31.089 22.178 32 16 32s-10.178-.91-12.634-3.366Z"/>
  <path fill="url(#a)" d="M17.512 6.333H8.833v19.334h5.189a.873.873 0 0 0 .872-.873v-3.712h1.3c6.348 0 8.947-3.574 8.947-7.76-.01-5.17-3.935-6.989-7.63-6.989Z"/>
  <defs>
    <linearGradient id="a" x1="5.319" x2="22.327" y1="21.478" y2="7.207" gradientUnits="userSpaceOnUse">
      <stop stop-color="#00A3F1"/>
      <stop offset=".44" stop-color="#0090F8"/>
      <stop offset="1" stop-color="#006EFF"/>
    </linearGradient>
  </defs>
</svg>
